src/pos-icons/account-arrow-right-outline.svg

<svg height="24" viewBox="0 0 24 24" width="24" xmlns="http://www.w3.org/2000/svg"><path d="m19 21v-2h-4v-2h4v-2l3 3zm-6-3c0 .71.15 1.39.42 2h-11.42v-3c0-2.21 3.58-4 8-4 1 0 1.96.09 2.85.26.83.16 1.59.38 2.26.66-1.28.91-2.11 2.4-2.11 4.08m-9-1v1h7c0-1.04.23-2.03.64-2.92l-1.64-.08c-3.31 0-6 .9-6 2m6-13a4 4 0 0 1 4 4 4 4 0 0 1 -4 4 4 4 0 0 1 -4-4 4 4 0 0 1 4-4m0 2a2 2 0 0 0 -2 2 2 2 0 0 0 2 2 2 2 0 0 0 2-2 2 2 0 0 0 -2-2z"/></svg>

<?xml version="1.0" encoding="UTF-8"?><!DOCTYPE svg PUBLIC "-//W3C//DTD SVG 1.1//EN" "http://www.w3.org/Graphics/SVG/1.1/DTD/svg11.dtd"><svg xmlns="http://www.w3.org/2000/svg" xmlns:xlink="http://www.w3.org/1999/xlink" version="1.1" id="mdi-account-arrow-right-outline" width="24" height="24" viewBox="0 0 24 24"><path d="M19,21V19H15V17H19V15L22,18L19,21M13,18C13,18.71 13.15,19.39 13.42,20H2V17C2,14.79 5.58,13 10,13C11,13 11.96,13.09 12.85,13.26C13.68,13.42 14.44,13.64 15.11,13.92C13.83,14.83 13,16.32 13,18M4,17V18H11C11,16.96 11.23,15.97 11.64,15.08L10,15C6.69,15 4,15.9 4,17M10,4A4,4 0 0,1 14,8A4,4 0 0,1 10,12A4,4 0 0,1 6,8A4,4 0 0,1 10,4M10,6A2,2 0 0,0 8,8A2,2 0 0,0 10,10A2,2 0 0,0 12,8A2,2 0 0,0 10,6Z" /></svg>
